!!!COM: Gabriel Faure/
!!!CNT: Francais
!!!TXO: Francais
!!!OTL: Adieu (poe2me d'un Jour)
!!!OPS: Op. 21
!!!ONM: No. 3
!!!LYR: Charles Grandmougin
!!!ENC: Jacob Pegg
!!!YOR: Album of Twenty Songs (Vingt Me/lodies,) Volume II
!!!YOR: Edward B. Marks Music Corporation, RCA Building, Radio
!!!YOR: City, New York 20, N.Y.
!!!ODT: 1878/
!!NB: Vocal melody and text only encoded.
!!NB: First instance of melodic material only encoded.
**kern	**silbe
*clef G2	*
*k[b-]	*
*M4/4	*
*MM76	*
!!created: 2/6/04 17:03
!!proofed and posted: 2/9/04 20:36
!!edit time: 24 min.
=5	=5
{8cc	{Com-
8cc	-me
8b-	tout
8a	meurt
4a	vi-
8g	-te,
8g	la
=6	=6
4b-	ro-
8cc	-se
8cc	De/-
4dd	-clo-
4ff}	-se,}
=7	=7
{8ee	{Et
8ee	les
8dd	frais
8dd	man-
4cc	-teaux
8a	di-
8bn	-a-
=8	=8
4.cc	-pre/s
8bn	Des
2bn}	pre/s:}
=9	=9
{4cc	{Les
8dd	longs
8ee	sou-
4ee	-pirs,
4ff	les
=10	=10
8b-	bien~
8cc	~ai-
2b-	-me/-
4a}	-es,}
=11	=11
4r	.
8r	.
{8a	{Fu-
2dd	-me/-
=12	=12
[2cc	-es!
4cc]}	|}
4r	.
=13	=13
*k[b-e-a-d-]	*
1r	.
=14	=14
2r	.
4r	.
{4f	{On
=15	=15
4cc	voit,
8b-	dans
8a-	ce
4a-	mon-
8g	-de
8f	l'e/-
=16	=16
4.a-}	-ger,}
{8g	{Chan-
8f	-ger
8g	Plus
8a-	vi-
8b-	-te
=17	=17
8cc	que
8cc	les
8b-	flots
8a-	des
4a-	gre\-
8g}	-ves,}
16r	.
{16f	{Nos
=18	=18
(4.a-	re^-
8g)	|
4f}	-ves,}
8r	.
{8f	{Plus
=19	=19
4.ff	vi-
8ee-	-te
8dd-	que
8cc	le
8b-	givre
8an	en
=20	=20
[2dd-	fleurs,
4dd-]}	|}
8r	.
{8dd-	{Nos
=21	=21
[1cc	coeurs!
=22	=22
2cc]}	|}
4r	.
8r	.
8r	.
!!mm.23-28 repeat material
=29	=29
*k[b-]	*
8r	.
{8a	{Pres-
8bn	-qu'au
8cc#	mo-
8dd	-ment
8a	de
8f#	mon
8g	a-
=30	=30
[2a	-veu,
4a]}	|}
8r	.
{8ccn	{A-
=31	=31
[1ff	-dieu!
=32	=32
1ff]}	|}
*-	*-
